src/hexagon-svef.svg

<?xml version="1.0" encoding="UTF-8"?>
<svg width="190px" height="210px" viewBox="0 0 190 210" version="1.1" xmlns="http://www.w3.org/2000/svg" xmlns:xlink="http://www.w3.org/1999/xlink">
    <!-- Generator: Sketch 43.2 (39069) - http://www.bohemiancoding.com/sketch -->
    <title>hexagon-svef</title>
    <desc>Created with Sketch.</desc>
    <defs></defs>
    <g id="Logo" stroke="none" stroke-width="1" fill="none" fill-rule="evenodd">
        <path d="M179.900651,143.933364 C179.896894,149.457974 176.022503,156.171679 171.240383,158.932637 L103.586843,197.992427 C98.8076649,200.751686 91.0510903,200.750588 86.2669572,197.992802 L18.7059454,159.047658 C13.9196145,156.288606 10.0425734,149.570834 10.046328,144.048761 L10.0993493,66.0666357 C10.1031056,60.5420255 13.977497,53.8283212 18.7596173,51.0673628 L86.4131574,12.0075732 C91.1923351,9.24831368 98.9489097,9.24941241 103.733043,12.0071976 L171.294055,50.9523421 C176.080386,53.7113942 179.957427,60.4291661 179.953672,65.9512395 L179.900651,143.933364 Z" id="hexagon" fill="#E7792B"></path>
        <path d="M142.613169,96.8376543 L160,103.463096 L160,106.648105 L142.613169,113.287498 L142.613169,109.520006 L154.647741,105.055198 L142.613169,100.605146 L142.613169,96.8376543 Z M118.004115,115.061728 L118.004115,110.246914 L120.411523,110.246914 L120.411523,100.082305 L118.004115,100.082305 L118.004115,95.2674897 L139.403292,95.2674897 L139.403292,101.687243 L133.518519,101.687243 L133.518519,100.082305 L128.703704,100.082305 L128.703704,103.024691 L132.44856,103.024691 L132.44856,107.037037 L128.703704,107.037037 L128.703704,110.246914 L131.378601,110.246914 L131.378601,115.061728 L118.004115,115.061728 Z M94.4650206,115.061728 L94.4650206,110.246914 L96.3374486,110.246914 L96.3374486,100.082305 L94.4650206,100.082305 L94.4650206,95.2674897 L115.329218,95.2674897 L115.329218,101.687243 L109.711934,101.687243 L109.711934,100.082305 L104.62963,100.082305 L104.62963,103.024691 L108.909465,103.024691 L108.909465,107.037037 L104.62963,107.037037 L104.62963,110.246914 L109.711934,110.246914 L109.711934,108.641975 L115.329218,108.641975 L115.329218,115.061728 L94.4650206,115.061728 Z M77.8993847,115.329218 L70.9360761,100.082305 L69.3209877,100.082305 L69.3209877,95.2674897 L81.090535,95.2674897 L81.090535,100.082305 L79.2008493,100.082305 L82.4468709,108.505386 L85.8502655,100.082305 L84.0329218,100.082305 L84.0329218,95.2674897 L92.8600823,95.2674897 L92.8600823,100.082305 L91.2447253,100.082305 L84.6895718,115.329218 L77.8993847,115.329218 Z M50.8643308,115.061728 L50.8643308,108.641975 L55.7453981,108.641975 C56.3278012,110.438883 57.4244511,111.304156 59.0358822,111.304156 C60.2001539,111.304156 60.7822897,110.87702 60.7822897,110.022748 C60.7822897,109.576294 60.5794242,109.206306 60.1739604,108.911979 C59.7374922,108.589212 58.8175144,108.143026 57.4140272,107.57369 C55.6467718,106.842568 54.3472564,106.211254 53.5157484,105.67948 C52.7358253,105.195732 52.0705654,104.526319 51.5197013,103.671779 C50.96857,102.826897 50.6930043,101.892133 50.6930043,100.866684 C50.6930043,99.0247935 51.3478403,97.5866965 52.6577796,96.5523935 C53.9570276,95.5175539 55.5580348,95 57.4602666,95 C59.3627656,95 60.9739295,95.4958215 62.3662551,96.4872428 L62.3662551,95.2674897 L67.18107,95.2674897 L67.18107,100.884774 L62.3568362,100.884774 C61.7642764,99.3362917 60.7144006,98.5584851 59.2072087,98.5584851 C58.1469089,98.5584851 57.6166254,98.9716697 57.6166254,99.7980389 C57.6166254,100.196735 57.7673713,100.49616 58.0685959,100.695776 C58.3596638,100.904783 59.3004894,101.365457 60.8910727,102.078067 C63.0223634,103.046904 64.4464312,103.754415 65.164078,104.200869 C65.5278461,104.419267 65.8996326,104.725399 66.2791702,105.119803 C66.6587078,105.513938 66.9730291,105.920147 67.2224013,106.338161 C67.7941132,107.268899 68.0798356,108.276104 68.0798356,109.358848 C68.0798356,111.021366 67.4041517,112.426999 66.052784,113.576403 C64.7014164,114.744857 62.9967045,115.329218 60.938114,115.329218 C59.0254583,115.329218 57.294553,114.813811 55.6790123,113.783128 L55.6790123,115.061728 L50.8643308,115.061728 Z M47.3868313,113.287498 L30,106.648105 L30,103.463096 L47.3868313,96.8376543 L47.3868313,100.605146 L35.403831,105.055198 L47.3868313,109.520006 L47.3868313,113.287498 Z" id="logo-graphic" fill="#EBEBEA"></path>
    </g>
</svg>

<svg xmlns="http://www.w3.org/2000/svg" width="190" height="210" viewBox="0 0 190 210">
  <g fill="none" fill-rule="evenodd">
    <path fill="#E7792B" d="M179.9 143.933c-.003 5.525-3.877 12.24-8.66 15l-67.653 39.06c-4.78 2.76-12.536 2.758-17.32 0l-67.56-38.945c-4.787-2.76-8.664-9.477-8.66-15l.052-77.98c0-5.526 3.87-12.24 8.66-15l67.65-39.06c4.78-2.76 12.53-2.76 17.32 0l67.56 38.944c4.78 2.76 8.66 9.477 8.66 15l-.05 77.98z"/>
    <path fill="#EBEBEA" d="M142.613 96.838L160 103.463v3.185l-17.387 6.64v-3.768l12.035-4.465-12.035-4.45v-3.767zm-24.61 18.224v-4.815h2.41v-10.165h-2.41v-4.815h21.4v6.42h-5.884v-1.605h-4.82v2.943h3.74v4.012h-3.74v3.21h2.67v4.815H118zm-23.538 0v-4.815h1.872v-10.165h-1.872v-4.815h20.864v6.42h-5.62v-1.605h-5.08v2.943h4.28v4.012h-4.28v3.21h5.08v-1.605h5.61v6.42H94.46zm-16.566.267l-6.97-15.25h-1.61v-4.82h11.77v4.81H79.2l3.247 8.42 3.403-8.42h-1.817v-4.81h8.827v4.814h-1.615l-6.555 15.25H77.9zm-27.04-.27v-6.42h4.88c.58 1.79 1.68 2.66 3.29 2.66 1.16 0 1.74-.43 1.74-1.28 0-.45-.205-.82-.61-1.11-.438-.33-1.357-.77-2.76-1.34-1.768-.73-3.068-1.37-3.9-1.9-.78-.488-1.444-1.158-1.995-2.01-.55-.848-.83-1.78-.83-2.808 0-1.84.656-3.28 1.966-4.315 1.3-1.035 2.9-1.553 4.803-1.553 1.9 0 3.51.495 4.903 1.486v-1.22h4.815v5.62h-4.82c-.593-1.55-1.643-2.33-3.15-2.33-1.06 0-1.59.416-1.59 1.24 0 .4.15.7.45.9.29.21 1.23.67 2.82 1.38 2.13.97 3.557 1.678 4.275 2.125.363.22.735.524 1.114.92.38.393.692.8.94 1.217.573.93.86 1.94.86 3.02 0 1.666-.677 3.07-2.028 4.22-1.35 1.17-3.056 1.754-5.115 1.754-1.914 0-3.644-.516-5.26-1.547v1.28h-4.81zm-3.48-1.78L30 106.64v-3.18l17.387-6.624v3.766l-11.983 4.45 11.983 4.465v3.767z"/>
  </g>
</svg>
